X: 23132
T: Law Student, The
R: jig
M: 6/8
K: Bdorian
|:~B3 Bcd|cAF ~F3|~B3 d2a|fea fga|
~B3 Bcd|cAF ~F3|d2f ecA|cBB B3:|
|:~b3 bag|~a3 a2e|ded cde|cBA A2a|
~b3 bag|~a3 a=g/f/e|ded cdc|~B3 BAF:|

